static/images/past-sponsors/woven.svg

<svg fill="none" height="60" viewBox="0 0 302 60" width="302" xmlns="http://www.w3.org/2000/svg"><path d="m172.614 35.7037h-14.658v3.1763h5.428v13.5675h3.838v-13.5675h5.392zm9.917-.5287c-4.997 0-9.034 3.9693-9.034 8.8687 0 4.8956 4.037 8.8669 9.034 8.8669s9.034-3.9713 9.034-8.8688c0-4.8956-4.069-8.8668-9.034-8.8668zm4.401 11.5481c-.3.736-.782 1.3834-1.401 1.8812-.62.4977-1.356.8292-2.139.9632-.296.0389-.594.0614-.893.0675-.3 0-.596-.0338-.894-.0675-.783-.134-1.519-.4655-2.139-.9632-.619-.4978-1.102-1.1452-1.401-1.8812-.347-.8514-.528-1.7617-.531-2.6813 0-.9581.167-1.8525.531-2.6812.299-.736.782-1.3835 1.401-1.8812.62-.4977 1.356-.8292 2.139-.9632.297-.0386.595-.0605.894-.0656.297 0 .595.0319.893.0656.783.1338 1.52.4655 2.139.9636.62.4981 1.102 1.1461 1.401 1.8827.332.8268.53 1.7531.53 2.6812 0 .9263-.198 1.8525-.53 2.6794zm4.738-11.0513h4.5l4.236 7.1813 4.201-7.1813h4.534l-6.817 10.5225v6.2213h-3.837v-6.2213zm26.571-.4968c-4.997 0-9.034 3.9693-9.034 8.8687 0 4.8956 4.037 8.8669 9.034 8.8669 4.996 0 9.033-3.9713 9.033-8.8688.034-4.8956-4.037-8.8668-9.033-8.8668zm4.434 11.5481c-.3.736-.782 1.3834-1.401 1.8812-.62.4977-1.356.8292-2.139.9632-.3.0675-.596.0675-.894.0675-.299 0-.595-.0338-.893-.0675-.784-.1337-1.52-.4651-2.14-.9628-.62-.4978-1.102-1.1454-1.402-1.8816-.346-.8516-.526-1.7619-.529-2.6813 0-.9581.199-1.8525.529-2.6812.305-.7327.789-1.3772 1.408-1.8741.619-.497 1.353-.8306 2.134-.9703.298-.0337.594-.0656.893-.0656.298 0 .596.0319.894.0656 1.62.2644 2.944 1.3894 3.54 2.8463.33.8268.529 1.7531.529 2.6812-.007.9184-.186 1.8274-.529 2.6794zm30.699-11.0513h-4.764l-6.915 16.71h4.267l1.39-3.6731h7.247l1.389 3.6731h4.269zm-4.897 10.125 2.516-6.6187 2.514 6.6187zm-5.719-10.0931h-14.659v3.1763h5.428v13.5675h3.839v-13.5675h5.392zm-110.914 4.7644c-1.62 0-2.912.5962-3.637 1.6556l-.233.33v-7.5112h-3.474v17.505h3.474v-1.8544l.231.3656c.694 1.0913 2.019 1.7194 3.607 1.7194 1.62 0 3.111-.5944 4.169-1.7194 1.059-1.125 1.621-2.6812 1.621-4.4006 0-1.7213-.562-3.2775-1.621-4.4025-1.058-1.0913-2.513-1.6875-4.137-1.6875zm-.892 9.1331c-.827 0-1.588-.2981-2.151-.8269-.3-.2844-.538-.6285-.697-1.0102-.16-.3817-.238-.7925-.229-1.206 0-1.7869 1.29-3.0788 3.075-3.0788 1.789 0 3.013 1.2244 3.013 3.0788.032 1.8525-1.159 3.0431-3.011 3.0431zm17.072-8.9006-2.449 7.3781-.099.3319-.132-.3319-2.615-7.3781h-3.805l4.733 11.3812.032.0338-.032.0337-.3.7275c-.43.9938-1.191 1.4888-2.316 1.4888-.37.0039-.739-.0518-1.091-.165l-.398 2.8125c.662.2644 1.392.3637 2.219.3637 2.415 0 3.838-1.0593 4.762-3.54l5.098-13.17zm-10.778-34.77564-4.897 15.94684-4.798-15.94872h-5.89l7.478 22.33502h5.559l4.699-14.9888 4.832 14.9888h5.559l7.078-22.33314h-5.525l-4.6 15.81754-5.03-15.81754zm47.846 0 8.736 22.33314h5.426l8.67-22.33314h-5.493l-5.725 16.11564-5.724-16.11564zm36.109-.43125c-6.519 0-11.25 4.89749-11.25 11.64749 0 6.8156 4.864 11.58 11.846 11.58 3.574 0 6.782-.9262 9.1-2.6137l-1.324-4.1682c-1.952 1.455-4.566 2.2819-7.213 2.2819-4.071 0-6.585-2.1506-6.949-5.9231v-.0994h16.511v-.7594c0-7.1475-4.301-11.94559-10.721-11.94559zm-5.625 9.09939.034-.0994c.694-3.0112 2.844-4.86374 5.625-4.86374 2.747 0 4.83 1.95004 5.261 4.89754v.0975zm35.006-9.16689c-3.375 0-6.187 1.5225-7.741 4.13625l-.165.26437v-3.90187h-5.361v22.33124h5.361v-11.91c0-3.7387 2.182-6.0562 5.69-6.0562 3.21 0 4.733 1.8862 4.733 5.925v12.0431h5.358v-14.1938c-.031-5.66059-2.745-8.63809-7.875-8.63809zm-79.29.03375c-6.551 0-11.846 5.19374-11.846 11.61374s5.295 11.6138 11.846 11.6138c6.552 0 11.847-5.1938 11.847-11.6138s-5.295-11.61374-11.847-11.61374zm5.79 15.12184c-.389.9661-1.019 1.8167-1.83 2.471-.81.6543-1.774 1.0907-2.801 1.2678-.382.0674-.77.1006-1.159.0994-.397 0-.793-.0338-1.156-.0994-1.027-.1768-1.992-.6131-2.803-1.2674s-1.441-1.505-1.831-2.4714c-.438-1.1175-.663-2.3076-.661-3.5081 0-1.2244.23-2.415.661-3.5062.39-.9665 1.019-1.8174 1.83-2.4721.811-.6546 1.775-1.0913 2.802-1.26857.365-.06562.761-.09937 1.158-.09937.398 0 .795.03375 1.159.09937 2.119.36377 3.872 1.81877 4.631 3.73877.439 1.1174.664 2.3076.662 3.5081.034 1.2027-.192 2.3985-.662 3.5063z" fill="#000"/><path d="m76.7476 49.965c2.58 1.5225 3.1425 2.88 3.1425 4.9313 0 2.8781-2.3494 4.9968-5.4937 4.9968h19.5562v-19.8543z" fill="#575a60"/><path d="m93.9561.331953-13.7325 11.945647 13.7325 7.9087c.0338-2.9775.9263-4.17 2.6813-5.1937 2.5125-1.4569 5.5256-.465 7.0796 2.25l-9.7609-16.912522z" fill="#d30c28"/><path d="m93.9544 20.3832v39.51l16.0486-27.8307c.693-1.2243.693-2.7131 0-3.9375l-6.287-10.8862c-1.557-2.7131-4.5997-3.7069-7.0822-2.25-1.8188 1.0256-2.6813 2.25-2.6813 5.3925z" fill="#6f7278"/><path d="m79.0274 51.8513c.6938.8925.8925 1.8525.8925 3.0431 0 2.88-2.3493 4.9969-5.4937 4.9969h-2.0175 13.6331z" fill="#414449"/><path d="m52.5524 19.5225c-1.4887-1.6219-1.7193-4.1025-.4293-6.3188l-9.7613 16.9088 17.2069 9.9262v-12.4425z" fill="#a5a5a5"/><path d="m53.7149 20.4525c-.4337-.2441-.8251-.5569-1.1587-.9263l7.0162 8.04v-7.3781c-2.6137 1.455-4.1044 1.29-5.8575.2625z" fill="#838688"/><path d="m59.7075 20.0869c.8288-.4969 1.4906-.8606 1.4906-.8606l32.7563-18.894391h-32.1263c-1.3893 0-2.7131.761251-3.4087 1.951871l-6.2888 10.88812c-1.5562 2.7131-.9262 5.8219 1.5882 7.2788 1.7868 1.0593 3.3093 1.1906 5.9887-.3638z" fill="#e60a1e"/><path d="m76.7419 10.26 3.4744 2.0175 13.7325-11.94376z" fill="#a1192e"/><path d="m76.5805 49.8675c-.8268-.4969-1.4887-.8625-1.4887-.8625l-32.76-18.8925 16.05 27.8287c.3427.5992.8392 1.0959 1.4381 1.4391.5989.3431 1.2786.5201 1.9688.5128h12.5737c3.1444 0 5.4938-2.1187 5.4938-4.9969.0337-2.085-.5625-3.4743-3.2757-5.0287z" fill="#c7c7c7"/></svg>

<svg width="302" height="60" viewBox="0 0 302 60" fill="none" xmlns="http://www.w3.org/2000/svg">
<path d="M172.614 35.7037H157.956V38.88H163.384V52.4475H167.222V38.88H172.614V35.7037ZM182.531 35.175C177.534 35.175 173.497 39.1443 173.497 44.0437C173.497 48.9393 177.534 52.9106 182.531 52.9106C187.528 52.9106 191.565 48.9393 191.565 44.0418C191.565 39.1462 187.496 35.175 182.531 35.175ZM186.932 46.7231C186.632 47.4591 186.15 48.1065 185.531 48.6043C184.911 49.102 184.175 49.4335 183.392 49.5675C183.096 49.6064 182.798 49.6289 182.499 49.635C182.199 49.635 181.903 49.6012 181.605 49.5675C180.822 49.4335 180.086 49.102 179.466 48.6043C178.847 48.1065 178.364 47.4591 178.065 46.7231C177.718 45.8717 177.537 44.9614 177.534 44.0418C177.534 43.0837 177.701 42.1893 178.065 41.3606C178.364 40.6246 178.847 39.9771 179.466 39.4794C180.086 38.9817 180.822 38.6502 181.605 38.5162C181.902 38.4776 182.2 38.4557 182.499 38.4506C182.796 38.4506 183.094 38.4825 183.392 38.5162C184.175 38.65 184.912 38.9817 185.531 39.4798C186.151 39.9779 186.633 40.6259 186.932 41.3625C187.264 42.1893 187.462 43.1156 187.462 44.0437C187.462 44.97 187.264 45.8962 186.932 46.7231ZM191.67 35.6718H196.17L200.406 42.8531L204.607 35.6718H209.141L202.324 46.1943V52.4156H198.487V46.1943L191.67 35.6718ZM218.241 35.175C213.244 35.175 209.207 39.1443 209.207 44.0437C209.207 48.9393 213.244 52.9106 218.241 52.9106C223.237 52.9106 227.274 48.9393 227.274 44.0418C227.308 39.1462 223.237 35.175 218.241 35.175ZM222.675 46.7231C222.375 47.4591 221.893 48.1065 221.274 48.6043C220.654 49.102 219.918 49.4335 219.135 49.5675C218.835 49.635 218.539 49.635 218.241 49.635C217.942 49.635 217.646 49.6012 217.348 49.5675C216.564 49.4338 215.828 49.1024 215.208 48.6047C214.588 48.1069 214.106 47.4593 213.806 46.7231C213.46 45.8715 213.28 44.9612 213.277 44.0418C213.277 43.0837 213.476 42.1893 213.806 41.3606C214.111 40.6279 214.595 39.9834 215.214 39.4865C215.833 38.9895 216.567 38.6559 217.348 38.5162C217.646 38.4825 217.942 38.4506 218.241 38.4506C218.539 38.4506 218.837 38.4825 219.135 38.5162C220.755 38.7806 222.079 39.9056 222.675 41.3625C223.005 42.1893 223.204 43.1156 223.204 44.0437C223.197 44.9621 223.018 45.8711 222.675 46.7231ZM253.374 35.6718H248.61L241.695 52.3818H245.962L247.352 48.7087H254.599L255.988 52.3818H260.257L253.374 35.6718ZM248.477 45.7968L250.993 39.1781L253.507 45.7968H248.477ZM242.758 35.7037H228.099V38.88H233.527V52.4475H237.366V38.88H242.758V35.7037ZM131.844 40.4681C130.224 40.4681 128.932 41.0643 128.207 42.1237L127.974 42.4537V34.9425H124.5V52.4475H127.974V50.5931L128.205 50.9587C128.899 52.05 130.224 52.6781 131.812 52.6781C133.432 52.6781 134.923 52.0837 135.981 50.9587C137.04 49.8337 137.602 48.2775 137.602 46.5581C137.602 44.8368 137.04 43.2806 135.981 42.1556C134.923 41.0643 133.468 40.4681 131.844 40.4681ZM130.952 49.6012C130.125 49.6012 129.364 49.3031 128.801 48.7743C128.501 48.4899 128.263 48.1458 128.104 47.7641C127.944 47.3824 127.866 46.9716 127.875 46.5581C127.875 44.7712 129.165 43.4793 130.95 43.4793C132.739 43.4793 133.963 44.7037 133.963 46.5581C133.995 48.4106 132.804 49.6012 130.952 49.6012ZM148.024 40.7006L145.575 48.0787L145.476 48.4106L145.344 48.0787L142.729 40.7006H138.924L143.657 52.0818L143.689 52.1156L143.657 52.1493L143.357 52.8768C142.927 53.8706 142.166 54.3656 141.041 54.3656C140.671 54.3695 140.302 54.3138 139.95 54.2006L139.552 57.0131C140.214 57.2775 140.944 57.3768 141.771 57.3768C144.186 57.3768 145.609 56.3175 146.533 53.8368L151.631 40.6668L148.024 40.7006ZM137.246 5.92496L132.349 21.8718L127.551 5.92308H121.661L129.139 28.2581H134.698L139.397 13.2693L144.229 28.2581H149.788L156.866 5.92496H151.341L146.741 21.7425L141.711 5.92496H137.246ZM185.092 5.92496L193.828 28.2581H199.254L207.924 5.92496H202.431L196.706 22.0406L190.982 5.92496H185.092ZM221.201 5.49371C214.682 5.49371 209.951 10.3912 209.951 17.1412C209.951 23.9568 214.815 28.7212 221.797 28.7212C225.371 28.7212 228.579 27.795 230.897 26.1075L229.573 21.9393C227.621 23.3943 225.007 24.2212 222.36 24.2212C218.289 24.2212 215.775 22.0706 215.411 18.2981V18.1987H231.922V17.4393C231.922 10.2918 227.621 5.49371 221.201 5.49371ZM215.576 14.5931L215.61 14.4937C216.304 11.4825 218.454 9.62996 221.235 9.62996C223.982 9.62996 226.065 11.58 226.496 14.5275V14.625L215.576 14.5931ZM250.582 5.42621C247.207 5.42621 244.395 6.94871 242.841 9.56246L242.676 9.82683V5.92496H237.315V28.2562H242.676V16.3462C242.676 12.6075 244.858 10.29 248.366 10.29C251.576 10.29 253.099 12.1762 253.099 16.215V28.2581H258.457V14.0643C258.426 8.40371 255.712 5.42621 250.582 5.42621ZM171.292 5.45996C164.741 5.45996 159.446 10.6537 159.446 17.0737C159.446 23.4937 164.741 28.6875 171.292 28.6875C177.844 28.6875 183.139 23.4937 183.139 17.0737C183.139 10.6537 177.844 5.45996 171.292 5.45996ZM177.082 20.5818C176.693 21.5479 176.063 22.3985 175.252 23.0528C174.442 23.7071 173.478 24.1435 172.451 24.3206C172.069 24.388 171.681 24.4212 171.292 24.42C170.895 24.42 170.499 24.3862 170.136 24.3206C169.109 24.1438 168.144 23.7075 167.333 23.0532C166.522 22.3989 165.892 21.5482 165.502 20.5818C165.064 19.4643 164.839 18.2742 164.841 17.0737C164.841 15.8493 165.071 14.6587 165.502 13.5675C165.892 12.601 166.521 11.7501 167.332 11.0954C168.143 10.4408 169.107 10.0041 170.134 9.82683C170.499 9.76121 170.895 9.72746 171.292 9.72746C171.69 9.72746 172.087 9.76121 172.451 9.82683C174.57 10.1906 176.323 11.6456 177.082 13.5656C177.521 14.683 177.746 15.8732 177.744 17.0737C177.778 18.2764 177.552 19.4722 177.082 20.58V20.5818Z" fill="black"/>
<path d="M76.7476 49.965C79.3276 51.4875 79.8901 52.845 79.8901 54.8963C79.8901 57.7744 77.5407 59.8931 74.3964 59.8931H93.9526V40.0388L76.7476 49.965Z" fill="#575A60"/>
<path d="M93.9561 0.331953L80.2236 12.2776L93.9561 20.1863C93.9899 17.2088 94.8824 16.0163 96.6374 14.9926C99.1499 13.5357 102.163 14.5276 103.717 17.2426L93.9561 0.330078V0.331953Z" fill="#D30C28"/>
<path d="M93.9544 20.3832V59.8932L110.003 32.0625C110.696 30.8382 110.696 29.3494 110.003 28.125L103.716 17.2388C102.159 14.5257 99.1163 13.5319 96.6338 14.9888C94.815 16.0144 93.9525 17.2388 93.9525 20.3813L93.9544 20.3832Z" fill="#6F7278"/>
<path d="M79.0274 51.8513C79.7212 52.7438 79.9199 53.7038 79.9199 54.8944C79.9199 57.7744 77.5706 59.8913 74.4262 59.8913H72.4087H86.0418L79.0274 51.8513Z" fill="#414449"/>
<path d="M52.5524 19.5225C51.0637 17.9006 50.8331 15.42 52.1231 13.2037L42.3618 30.1125L59.5687 40.0387V27.5962L52.5524 19.5225Z" fill="#A5A5A5"/>
<path d="M53.7149 20.4525C53.2812 20.2084 52.8898 19.8956 52.5562 19.5262L59.5724 27.5662V20.1881C56.9587 21.6431 55.468 21.4781 53.7149 20.4506V20.4525Z" fill="#838688"/>
<path d="M59.7075 20.0869C60.5363 19.59 61.1981 19.2263 61.1981 19.2263L93.9544 0.331909H61.8281C60.4388 0.331909 59.115 1.09316 58.4194 2.28378L52.1306 13.1719C50.5744 15.885 51.2044 18.9938 53.7188 20.4507C55.5056 21.51 57.0281 21.6413 59.7075 20.0869Z" fill="#E60A1E"/>
<path d="M76.7419 10.26L80.2163 12.2775L93.9488 0.33374L76.7419 10.26Z" fill="#A1192E"/>
<path d="M76.5805 49.8675C75.7537 49.3706 75.0918 49.005 75.0918 49.005L42.3318 30.1125L58.3818 57.9412C58.7245 58.5404 59.221 59.0371 59.8199 59.3803C60.4188 59.7234 61.0985 59.9004 61.7887 59.8931H74.3624C77.5068 59.8931 79.8562 57.7744 79.8562 54.8962C79.8899 52.8112 79.2937 51.4219 76.5805 49.8675Z" fill="#C7C7C7"/>
</svg>
